X:53
T:Gold Ring
Z: id:dc-jig-43
M:6/8
L:1/8
K:G Major
A|BAG A2d|cAF G3|BAG A2d|cAG F3|!
BAG A2d|cAF GBd|gbg afd|cAF G2:|!
A|B3 Bdc|A3 dcA|GFG GBd|cAG FGA|!
B3 Bdc|A3 dcA|FDE Fdc|AGF G2:|!
e|fdd edd|fdd edd|fdd ecA|dcA GFG|!
fdd edd|fdd edd|faf ged|cAF G2:|!
f|g3 fed|cAF GBd|g3 fed|cAG FAd|!
g3 fed|g3 fed|gbg afd|cAF G2:|!
E|DBB DBB|DAA DAA|G3 GBd|cAG FGA|!
DBB DBB|DAA DAA|G3 GBd|cAF G2:|!
A|B3 DED|A3 DED|G3 GBd|cAG FGA|!
B3 DED|A3 DED|G3 GBd|cAF G2:|!
A|B2G A2G|d2G G2A|B2G A2G|cAG FGA|!
B2G A2G|FDE FGA|faf ged|cAF G2:|!

